X:24
T:Under her Apron
Z:Jack Campin <http://www.campin.me.uk/>
S:MacFarlan MS II #175
M:6/8
L:1/8
Q:3/8=100
K:D Dorian
c   |ABA ded|Tc2A G2G|ABA ded|ede  d2
g/f/|ede fed| cBA GAB|cBA def|ed^c d2:|
A/B/|cA/B/c/A/ dB/c/d/B/|cA/B/c/A/ BG/A/B/G/|\
     cA/B/c/A/ dB/c/d/B/|ec/d/e/c/ f2
g/f/|ede       fed      |cBA       GAB      |\
     cd/c/B/A/ def      |gce       d2      :|
